X:1
T:Tipping It Up to Nancy
M:6/8
L:1/8
K:D
 A,3 B,3| D2 D DDF| E2- D B,2 A,| DDD D2 F| A3 z2 A| B2 B B2 B| B2 A A2 F|\
 EEE F2 E| D3 A,2 B,| D3 DDD| B,2 A, A,2 A,| D3 D D/2D/2 F| A3 A2 F|\
 E3 DDD| B,2 A, A,2 B,| DDD F2 E| D3 D3|
